dist/svg/language.svg

<!-- Generated by Trend Micro Style Portal -->
<svg version="1.1" xmlns="http://www.w3.org/2000/svg" width="16" height="16" viewBox="0 0 16 16">
  <title>language</title>
  <path fill="rgb(34,34,34)" d="M7.3 10.2l0.5-1.1c-0.6-0.5-1-1-1.5-1.5 1.199-1.284 2.152-2.815 2.77-4.508l0.030-0.092h1.9v-1h-5v-2h-1v2h-5v1h2.1c0.614 1.781 1.535 3.314 2.71 4.611l-0.010-0.011c-1.185 1.216-2.424 2.361-3.722 3.437l-0.078 0.063 0.7 0.9c1.376-1.139 2.615-2.284 3.79-3.49l0.010-0.010c0.6 0.5 1.1 1.1 1.8 1.7zM3.3 3h4.6c-0.584 1.436-1.396 2.665-2.403 3.703l0.003-0.003c-0.888-1.059-1.629-2.282-2.167-3.609l-0.033-0.091zM11.8 6h-1.7l-4.1 10h1.3l0.8-2h5.7l0.8 2h1.4zM8.5 13l2.5-5.9 2.5 5.9z"></path>
</svg>

<svg width="16" height="16" viewBox="0 0 16 16" fill="rgb(34, 34, 34)" xmlns="http://www.w3.org/2000/svg"><title>language</title><path d="M7.3 10.2L7.8 9.1C7.2 8.6 6.8 8.1 6.3 7.6C7.499 6.316 8.452 4.785 9.07 3.092L9.1 3H11V2H6V0H5V2H0V3H2.1C2.714 4.781 3.635 6.314 4.81 7.611L4.8 7.6C3.615 8.816 2.376 9.961 1.078 11.037L1 11.1L1.7 12C3.076 10.861 4.315 9.716 5.49 8.51L5.5 8.5C6.1 9 6.6 9.6 7.3 10.2ZM3.3 3H7.9C7.316 4.436 6.504 5.665 5.497 6.703L5.5 6.7C4.612 5.641 3.871 4.418 3.333 3.091L3.3 3ZM11.8 6H10.1L6 16H7.3L8.1 14H13.8L14.6 16H16L11.8 6ZM8.5 13L11 7.1L13.5 13H8.5Z" fill="rgb(34, 34, 34)" fill-opacity="1.00"/></svg>
